X: 271
T: the Fox and His Wife
B: O'Neill's 271
N: "With spirit"
N: "Collected by M.O'Brien"
Z: 1997 by John Chambers <jc@trillian.mit.edu>
M: 6/8
L: 1/8
K:G
(d/c/) \
| BAB Az B | GFA Gz d | gfg edc | (B2c) dz d |
| gfg e3 | d^ce d2(B/A/) | GFA GAB | g3 ez e \
| d^ce d=cA | G3 Gz ||


